X:1
T:Acadia, 11.10.11.10
T:Acadia, 11.10.11.10
T:W. C. Morson, 1909
T:Public Domain Courtesy of the Cyber Hymnal™
C:W. C. Morson, 1909
Z:Public Domain
Z:Courtesy of the Cyber Hymnal™
%%score ( 1 2 ) ( 3 4 )
L:1/8
Q:1/4=117
M:4/4
K:Eb
V:1 treble 
V:2 treble 
V:3 bass 
V:4 bass 
V:1
 [EG]4 [FG]3 [FG] | [EG]6 [EG]2 | [GB]2 [FA]2 [DG]3 [DF] | [DF]4 [B,E]4 | [GB]4 [GB]3 [GB] | %5
 [FA]6 [EG]2 [EF]2 [EF]2 [EF]3 [EG] | F8 | [EG]4 [FG]3 [FG] | G6 z2 G2 | F2 [FA]2 [Ad]3 [Ac] | %10
 [Ac]4 B4 | [Ge]4 [Ad]2 [Fc]2 | [GB]2 [EG]2 E2 [EA]2 | F4 C2 [DG]2 | [B,E]8 |] x8 |] %16
V:2
 x8 | x8 | x8 | x8 | x8 | x16 | (E4 D4) | x8 | E4 =E4 x2 | F2 x6 | x4 (G2 F2) | x8 | x4 E2 x2 | %13
 E2 D2 x4 | x8 |] x8 |] %16
V:3
 [E,B,]4 [D,=B,]3 [D,B,] | [C,C]6 [C,C]2 | [A,,C]2 [A,,C]2 [B,,B,]3 [B,,A,] | [E,A,]4 [E,G,]4 | %4
 [E,B,]4 [=E,_D]3 [E,D] | [F,C]6 [G,C]2 x8 | [A,C]2 [A,C]2 [=A,C]2 [F,A,]2 | B,4 [B,,B,]4 | %8
 [E,B,]4 [D,=B,]3 [D,B,] x2 | [C,C]6 [B,C]2 | C2 z [F,D]2 [E,E]2 x | [D,D]4 [D,B,]4 | %12
 (B,2 C2) [F,D]2 [A,D]2 | [G,E]2 [G,B,]2 [A,C]2 [F,A,_C]2 | [B,,A,]6 [B,,B,]2 |] [E,G,]8 |] %16
V:4
 x8 | x8 | x8 | x8 | x8 | x16 | x8 | B,4 x4 | x10 | x8 | F,3 C2 G, x2 | x8 | E,4 x4 | x8 | x8 |] %15
 x8 |] %16

